icons/1_Primary/TaxAct.svg

<svg xmlns="http://www.w3.org/2000/svg" width="1024" height="1024" fill="none">
   <g clip-path="url(#a)">
      <path fill="#54688C" d="M512 1024c282.77 0 512-229.23 512-512S794.77 0 512 0 0 229.23 0 512s229.23 512 512 512Z"/>
      <path fill="#fff" d="M299.89 476.95h-30.13v101.31h-42.09V476.95H196.5v-31.7h103.39v31.7Zm87.29 47.26v54.05h-35.72l-1.4-13-4.46 4.27c-4.93 4.93-12.92 9.23-24.81 9.23-8.49 0-35.38-1-35.38-29.39 0-25.08 28.76-28.19 37.51-28.55l26.85-1.13v-3.91c0-4.74-2.76-12.7-19.93-12.7-10.47 0-22.4 3.7-30.69 7.81l-8.84-22.67A119.11 119.11 0 0 1 335.7 479c19.27 0 30.6 3.38 39.52 11.3 8.78 7.77 11.96 18.23 11.96 33.91Zm-37.41 28.28v-20.43l-14.07.94c-9.16.37-14.68 4.82-14.68 12.2 0 7.55 5.4 12.23 14.42 12.23 6.76-.02 12.25-3.43 14.33-4.95v.01Zm129.95-23.67c-54.91 12.83-81.38 43.76-85.19 48.51a2.893 2.893 0 0 0-.47.94h43.46l18.19-29.94 18.39 29.94h43.46l-.42-.87-37.42-48.58Zm10.46-17.93.65-.84 43-53.88h-41.69l-36.46 54.27-14.33-28.81H398l34.37 45.94a217.895 217.895 0 0 1 57.8-16.69l.01.01Zm79.66-65.63-22.77 65.14c11.75 1.31 22.58 3 32 5.63l13.72-49.79 16 58.07c12 7.91 16.52 12.29 17 12.59-31.27-9.28-58.9-13.36-83.17-13.94l-18.77 54.43-.18.87h40.66l5.24-20.78h44.25l5.44 20.78H662l-46.17-133h-45.99Zm148.4 103c-14.24 0-22.74-7.55-22.74-20.19 0-12 8.94-20.4 21.74-20.4a42.223 42.223 0 0 1 20 5.07l5.7-27.21c-4.25-2-15.7-6.52-32.78-6.52-25.66 0-53.28 15.53-53.28 49.64s27.62 49.65 53.28 49.65c18.71 0 29.88-5.38 33.77-7.66l-6.59-27.52a40.503 40.503 0 0 1-19.1 5.09v.05Zm98.88.28c-3.31 0-10.65 0-10.65-10v-27.8h20.79v-29.1h-20.78v-25.48H768v25.46h-16.1v29.1H768v32.78c0 13.51 1.77 22.19 7.25 27.26 6 5.3 13.95 8 25.34 8 10.65 0 21.41-2.53 26.48-3.64l.42-27.32a90.572 90.572 0 0 1-10.37.69v.05Z"/>
   </g>
   <defs>
      <clipPath id="a">
         <path fill="#fff" d="M0 0h1024v1024H0z"/>
      </clipPath>
   </defs>
</svg>

<svg width="1024" height="1024" viewBox="0 0 1024 1024" fill="none" xmlns="http://www.w3.org/2000/svg">
<g clip-path="url(#clip0_2_3600)">
<path d="M512 1024C794.77 1024 1024 794.77 1024 512C1024 229.23 794.77 0 512 0C229.23 0 0 229.23 0 512C0 794.77 229.23 1024 512 1024Z" fill="#54688C"/>
<path d="M299.89 476.95H269.76V578.26H227.67V476.95H196.5V445.25H299.89V476.95ZM387.18 524.21V578.26H351.46L350.06 565.26L345.6 569.53C340.67 574.46 332.68 578.76 320.79 578.76C312.3 578.76 285.41 577.76 285.41 549.37C285.41 524.29 314.17 521.18 322.92 520.82L349.77 519.69V515.78C349.77 511.04 347.01 503.08 329.84 503.08C319.37 503.08 307.44 506.78 299.15 510.89L290.31 488.22C304.691 482.206 320.112 479.074 335.7 479C354.97 479 366.3 482.38 375.22 490.3C384 498.07 387.18 508.53 387.18 524.21ZM349.77 552.49V532.06L335.7 533C326.54 533.37 321.02 537.82 321.02 545.2C321.02 552.75 326.42 557.43 335.44 557.43C342.2 557.41 347.69 554 349.77 552.48V552.49ZM479.72 528.82C424.81 541.65 398.34 572.58 394.53 577.33C394.317 577.612 394.158 577.931 394.06 578.27H437.52L455.71 548.33L474.1 578.27H517.56L517.14 577.4L479.72 528.82ZM490.18 510.89L490.83 510.05L533.83 456.17H492.14L455.68 510.44L441.35 481.63H398L432.37 527.57C450.772 519.361 470.224 513.744 490.17 510.88L490.18 510.89ZM569.84 445.26L547.07 510.4C558.82 511.71 569.65 513.4 579.07 516.03L592.79 466.24L608.79 524.31C620.79 532.22 625.31 536.6 625.79 536.9C594.52 527.62 566.89 523.54 542.62 522.96L523.85 577.39L523.67 578.26H564.33L569.57 557.48H613.82L619.26 578.26H662L615.83 445.26H569.84ZM718.24 548.26C704 548.26 695.5 540.71 695.5 528.07C695.5 516.07 704.44 507.67 717.24 507.67C724.223 507.68 731.095 509.422 737.24 512.74L742.94 485.53C738.69 483.53 727.24 479.01 710.16 479.01C684.5 479.01 656.88 494.54 656.88 528.65C656.88 562.76 684.5 578.3 710.16 578.3C728.87 578.3 740.04 572.92 743.93 570.64L737.34 543.12C731.491 546.368 724.929 548.117 718.24 548.21V548.26ZM817.12 548.54C813.81 548.54 806.47 548.54 806.47 538.54V510.74H827.26V481.64H806.48V456.16H768V481.62H751.9V510.72H768V543.5C768 557.01 769.77 565.69 775.25 570.76C781.25 576.06 789.2 578.76 800.59 578.76C811.24 578.76 822 576.23 827.07 575.12L827.49 547.8C824.049 548.228 820.587 548.459 817.12 548.49V548.54Z" fill="white"/>
</g>
<defs>
<clipPath id="clip0_2_3600">
<rect width="1024" height="1024" fill="white"/>
</clipPath>
</defs>
</svg>
